X: 5
T: Market Lass  v.3
P: piffero terzo a0088
O: Dan Moylan
%R: march, reel
F: http://ancients.sudburymuster.org/mus/col/pdf/contraF.pdf
Z: 2019 John Chambers <jc:trillian.mit.edu>
M: 2/4
L: 1/16
K: G
|:\
G2B2 d2G2 | A2F2 B2D2 | d2B2 A2G2 | F2D2 G2A2 |\
G2B2 d2G2 | A2F2 B2D2 | d2B2 A2GA | B2d2 B2z2 ::\
d2G2 B2G2 | c2B2 A2G2 |
B2A2 G2F2 | A2G2 F2F2 |\
d2G2 B2G2 | c2B2 A2G2 | B2A2 G2F2 | B2d2 B2z2 ::\
d4 B4 | G4 F4 | G4 A4 | B4 D4 |
d4 B4 | G4 F4 | G4 d4 | f4 d4 ::\
d4 B4 | G4 F4 | G4 A4 | B4 D4 |\
F4 G4 | A4 B4 | d4 G4 | B4 z4 :|


